X: 1
T: Paddy's
M: 2/4
L: 1/8
R: polka
K: Dmix
AD ED|AD ED|C>D EG-|GC EG|
AD ED|AD ED|C>D EG|ED D2:|
|:Ad dc/d/|ed cG|Ad dc/d/|ed c2|
Ad dc/d/|ed cG|AG cE|ED D2:|
